brandFactory_export/2.Regular/Oso peluche_2Regular.svg

<?xml version="1.0" encoding="UTF-8"?>
<svg width="24px" height="24px" viewBox="0 0 24 24" version="1.1" xmlns="http://www.w3.org/2000/svg" xmlns:xlink="http://www.w3.org/1999/xlink">
    <title>2.Regular/Oso peluche_2Regular</title>
    <g id="Symbols" stroke="none" stroke-width="1" fill="none" fill-rule="evenodd">
        <g id="2.Regular/Oso-peluche_2Regular" fill="#5CB615" fill-rule="nonzero">
            <path d="M7.82016807,6.10084034 C7.6789916,5.9697479 7.61176471,5.78151261 7.61176471,5.53277311 C7.61176471,5.28067227 7.6789916,5.08907563 7.82016807,4.95798319 C7.95462185,4.83361345 8.14957983,4.7697479 8.39831933,4.7697479 C8.64705882,4.7697479 8.84201681,4.83361345 8.97647059,4.95798319 C9.11428571,5.08907563 9.18823529,5.28067227 9.18823529,5.52941176 C9.18823529,5.77815126 9.11428571,5.9697479 8.97647059,6.09747899 C8.84201681,6.22184874 8.64369748,6.28571429 8.39831933,6.28571429 C8.14957983,6.28907563 7.95798319,6.22521008 7.82016807,6.10084034 L7.82016807,6.10084034 Z M21.087395,18.7159664 C21.1445378,18.2386555 20.9596639,17.8722689 20.7210084,17.6537815 C20.4823529,17.4319328 20.0991597,17.3176471 19.5815126,17.3176471 C19.0638655,17.3176471 18.6806723,17.4319328 18.4386555,17.6571429 C18.189916,17.8890756 18.0621849,18.2655462 18.0621849,18.7798319 C18.0621849,18.7966387 18.0521008,18.8134454 18.0521008,18.8336134 L17.8403361,20.8436975 C17.8436975,21.287395 17.9512605,21.6134454 18.1663866,21.8117647 C18.3747899,22.0033613 18.7176471,22.1042017 19.1781513,22.1042017 C19.6352941,22.1042017 19.9747899,22.0067227 20.1865546,21.8117647 C20.2369748,21.7613445 20.2773109,21.7008403 20.3176471,21.6403361 C20.3142857,21.6369748 20.9966387,19.4655462 21.087395,18.7159664 L21.087395,18.7159664 Z M16.5865546,17.9327731 C16.7109244,17.3815126 16.9563025,16.9176471 17.3428571,16.5613445 C17.5815126,16.3394958 17.8638655,16.1781513 18.1764706,16.0537815 C18.2067227,15.7478992 18.2369748,15.4386555 18.2369748,15.1058824 C18.2369748,13.492437 17.8672269,12.194958 17.1747899,11.210084 C17.0638655,11.3344538 16.9764706,11.4789916 16.8521008,11.5932773 C15.6621849,12.6957983 13.9747899,13.2537815 11.8369748,13.2537815 C9.70252101,13.2537815 8.01176471,12.6957983 6.82521008,11.5932773 C6.70084034,11.4789916 6.61008403,11.3378151 6.49915966,11.210084 C5.81008403,12.194958 5.43697479,13.4890756 5.43697479,15.1058824 C5.43697479,15.4386555 5.46722689,15.7478992 5.49747899,16.0537815 C5.81008403,16.1781513 6.09243697,16.3428571 6.33109244,16.5613445 C6.71428571,16.9176471 6.96302521,17.3815126 7.08739496,17.9327731 C7.10084034,17.9731092 7.12436975,18.010084 7.12773109,18.0537815 L7.13109244,18.087395 C7.13781513,18.1310924 7.14117647,18.1815126 7.14453782,18.2252101 L7.31932773,19.8857143 C8.35462185,20.7596639 9.80336134,21.1966387 11.7764706,21.1966387 C11.7966387,21.1966387 11.8168067,21.1932773 11.8369748,21.1932773 C11.8605042,21.1932773 11.8739496,21.1966387 11.897479,21.1966387 C13.8672269,21.1966387 15.3193277,20.7563025 16.3512605,19.8857143 L16.5260504,18.2252101 C16.5327731,18.1815126 16.5361345,18.1310924 16.5428571,18.087395 L16.5462185,18.0537815 C16.5495798,18.010084 16.5731092,17.9764706 16.5865546,17.9327731 L16.5865546,17.9327731 Z M5.51092437,21.8117647 C5.72605042,21.6134454 5.8302521,21.287395 5.83697479,20.8436975 L5.62521008,18.8336134 C5.62521008,18.8168067 5.61176471,18.7966387 5.61176471,18.7798319 C5.61176471,18.2655462 5.48403361,17.8857143 5.23865546,17.6571429 C4.99327731,17.4319328 4.61008403,17.3176471 4.09243697,17.3176471 C3.57478992,17.3176471 3.19159664,17.4319328 2.95294118,17.6537815 C2.71428571,17.8756303 2.53277311,18.2386555 2.58655462,18.7159664 C2.67731092,19.4655462 3.35966387,21.6369748 3.35966387,21.6369748 C3.39663866,21.7008403 3.43697479,21.7613445 3.4907563,21.8084034 C3.70252101,22 4.03865546,22.1008403 4.49915966,22.1008403 C4.96302521,22.1042017 5.30252101,22.0033613 5.51092437,21.8117647 L5.51092437,21.8117647 Z M3.33277311,12.4537815 C2.02184874,13.9361345 2.86890756,15.0386555 3.4907563,15.5630252 L3.68571429,15.7243697 C3.71932773,15.7512605 3.77647059,15.7882353 3.82016807,15.8184874 C3.84705882,15.8151261 3.87731092,15.8117647 3.90420168,15.8117647 C3.8907563,15.5731092 3.85714286,15.3512605 3.85714286,15.102521 C3.85714286,13.7344538 4.10588235,12.5546218 4.54621849,11.5294118 C4.10588235,11.7848739 3.62857143,12.1243697 3.33277311,12.4537815 Z M5.42016807,3.81176471 C5.72605042,2.98487395 6.18655462,2.2789916 6.79831933,1.70420168 C6.32436975,1.51596639 5.8605042,1.6605042 5.42352941,2.15462185 C4.89579832,2.75294118 4.90252101,3.31092437 5.42016807,3.81176471 Z M11.8369748,1.51932773 C10.1226891,1.51932773 8.80504202,1.93613445 7.91764706,2.76638655 C7,3.62016807 6.53277311,4.92436975 6.53277311,6.63865546 C6.53277311,8.35294118 7,9.65042017 7.91764706,10.5008403 C8.6605042,11.189916 9.72268908,11.5764706 11.0571429,11.687395 L11.0571429,7.92941176 C10.8722689,7.85210084 10.7042017,7.75462185 10.5630252,7.62352941 C10.3781513,7.45210084 10.2739496,7.2907563 10.1865546,7.04201681 C10.1865546,7.04201681 10.1327731,6.8605042 10.1327731,6.72268908 C10.1327731,6.60504202 10.2,6.43697479 10.2,6.43697479 C10.287395,6.25882353 10.3781513,6.13109244 10.5193277,5.99663866 C10.8453782,5.69747899 11.2890756,5.54285714 11.8336134,5.53277311 C12.3815126,5.54285714 12.8252101,5.69747899 13.1478992,5.99663866 C13.292437,6.12773109 13.3831933,6.25882353 13.4705882,6.43697479 C13.4705882,6.43697479 13.5378151,6.60504202 13.5378151,6.72268908 C13.5378151,6.85714286 13.487395,7.04201681 13.487395,7.04201681 C13.4,7.29411765 13.2957983,7.45210084 13.1109244,7.62352941 C12.9697479,7.75462185 12.8016807,7.85210084 12.6168067,7.92941176 L12.6168067,11.687395 C13.9478992,11.5764706 15.0134454,11.189916 15.7563025,10.5008403 C16.6739496,9.65042017 17.1378151,8.35294118 17.1378151,6.63865546 C17.1378151,4.92436975 16.6739496,3.62016807 15.7563025,2.76638655 C14.8689076,1.9394958 13.5512605,1.51932773 11.8369748,1.51932773 Z M18.2504202,2.1512605 C17.8134454,1.65714286 17.3495798,1.51596639 16.8756303,1.70084034 C17.487395,2.27563025 17.9512605,2.98151261 18.2571429,3.80840336 C18.7714286,3.31092437 18.7815126,2.75294118 18.2504202,2.1512605 Z M20.3411765,12.4537815 C20.0487395,12.1243697 19.5714286,11.7882353 19.1277311,11.5327731 C19.5680672,12.5579832 19.8134454,13.7378151 19.8134454,15.1058824 C19.8134454,15.3512605 19.7831933,15.5764706 19.7663866,15.8151261 C19.7932773,15.8151261 19.8235294,15.8184874 19.8504202,15.8218487 C19.897479,15.7915966 19.9546218,15.7512605 19.9848739,15.7277311 L20.1831933,15.5663866 C20.805042,15.0352941 21.6521008,13.9361345 20.3411765,12.4537815 Z M21.8168067,16.5613445 C22.3613445,17.0655462 22.6369748,17.7142857 22.6605042,18.5983193 C22.6605042,18.6352941 22.6537815,18.7764706 22.6403361,18.8605042 C22.6302521,18.9546218 22.589916,19.1831933 22.589916,19.1831933 L21.810084,22.1310924 C21.8033613,22.1647059 21.7798319,22.1915966 21.7663866,22.2252101 C21.7596639,22.2487395 21.7596639,22.2722689 21.7462185,22.292437 C21.7361345,22.3058824 21.7226891,22.3159664 21.7193277,22.3294118 C21.6957983,22.3630252 21.6756303,22.389916 21.6453782,22.4201681 C21.5378151,22.5915966 21.4235294,22.7630252 21.2756303,22.9008403 C20.7613445,23.3747899 20.0554622,23.6168067 19.1714286,23.6168067 C18.2907563,23.6168067 17.5781513,23.3747899 17.0672269,22.9008403 C16.7310924,22.5915966 16.5092437,22.194958 16.3815126,21.7310924 C15.1882353,22.3865546 13.7058824,22.712605 11.8941176,22.712605 C11.8705882,22.712605 11.8571429,22.7092437 11.8336134,22.7092437 C11.8134454,22.7092437 11.7966387,22.712605 11.7731092,22.712605 C9.95798319,22.712605 8.4789916,22.3865546 7.28235294,21.7310924 C7.15462185,22.194958 6.93613445,22.5915966 6.6,22.9008403 C6.08235294,23.3747899 5.37647059,23.6168067 4.49579832,23.6168067 C3.61512605,23.6168067 2.90588235,23.3747899 2.39159664,22.9008403 C2.24033613,22.7630252 2.12941176,22.594958 2.01848739,22.4201681 C1.99495798,22.389916 1.96806723,22.3630252 1.94789916,22.3294118 C1.94117647,22.3159664 1.92436975,22.3058824 1.91764706,22.292437 C1.90756303,22.2689076 1.90756303,22.2453782 1.89747899,22.2252101 C1.88403361,22.1915966 1.86386555,22.1647059 1.85378151,22.1310924 L1.07731092,19.1831933 C1.07731092,19.1831933 1.03361345,18.9579832 1.02352941,18.8605042 C1.01008403,18.7764706 1.00336134,18.6386555 1.00336134,18.5983193 C1.0302521,17.7142857 1.30252101,17.0655462 1.84705882,16.5613445 C1.92436975,16.4907563 2.01176471,16.4336134 2.09579832,16.3764706 C0.996638655,15.2235294 0.431932773,13.3747899 2.12268908,11.4689076 C2.8487395,10.6487395 4.41848739,9.7210084 5.28907563,9.59327731 C5.35294118,9.58319328 5.37983193,9.55966387 5.45042017,9.54621849 L5.44033613,9.51932773 C5.11764706,8.68235294 4.94285714,7.72436975 4.94285714,6.63865546 C4.94285714,6.21512605 4.98655462,5.82857143 5.03697479,5.44201681 C5.01344538,5.42857143 4.98319328,5.43529412 4.95966387,5.42184874 C4.78151261,5.31092437 4.68403361,5.24033613 4.62352941,5.18991597 L4.45546218,5.05546218 C3.48403361,4.23529412 2.83865546,2.72605042 4.21680672,1.17310924 C5.58487395,-0.369747899 7.21176471,-0.0100840336 8.20336134,0.769747899 C9.21176471,0.278991597 10.4117647,0.00672268908 11.8302521,0.00672268908 C13.2487395,0.00672268908 14.4487395,0.278991597 15.4571429,0.769747899 C16.4487395,-0.0100840336 18.0756303,-0.369747899 19.4403361,1.17310924 C20.8151261,2.72605042 20.1731092,4.23529412 19.2016807,5.05546218 L19.0369748,5.18991597 C18.9731092,5.24033613 18.8756303,5.31092437 18.697479,5.42184874 C18.6739496,5.43529412 18.6470588,5.43193277 18.6201681,5.44201681 C18.6672269,5.82857143 18.7142857,6.21512605 18.7142857,6.63865546 C18.7142857,7.72773109 18.5428571,8.68235294 18.2201681,9.51932773 L18.210084,9.54621849 C18.2773109,9.55966387 18.3042017,9.58319328 18.3680672,9.59327731 C19.2420168,9.7210084 20.8117647,10.6487395 21.5378151,11.4689076 C23.2252101,13.3747899 22.6605042,15.2235294 21.5613445,16.3764706 C21.6487395,16.4369748 21.7394958,16.4907563 21.8168067,16.5613445 Z M15.2756303,6.28571429 C15.0268908,6.28571429 14.8319328,6.22184874 14.697479,6.09747899 C14.5563025,5.9697479 14.4857143,5.77815126 14.4857143,5.52605042 C14.4857143,5.27731092 14.5563025,5.08571429 14.697479,4.95798319 C14.8319328,4.8302521 15.0302521,4.76638655 15.2756303,4.76638655 C15.5243697,4.76638655 15.7193277,4.8302521 15.8537815,4.95798319 C15.994958,5.08571429 16.0621849,5.27731092 16.0621849,5.52941176 C16.0621849,5.77815126 15.994958,5.9697479 15.8537815,6.09747899 C15.7193277,6.22521008 15.5243697,6.28571429 15.2756303,6.28571429 Z" id="Oso-peluche_2Regular"></path>
        </g>
    </g>
</svg>

<svg width="24" height="24" viewBox="0 0 24 24" xmlns="http://www.w3.org/2000/svg"><path d="M7.82 6.1c-.141-.13-.208-.318-.208-.567 0-.252.067-.444.208-.575.135-.124.33-.188.578-.188.25 0 .444.064.578.188.138.131.212.323.212.571 0 .25-.074.44-.212.568-.134.125-.332.189-.578.189-.248.003-.44-.06-.578-.185zm13.267 12.616c.058-.477-.127-.844-.366-1.062-.239-.222-.622-.336-1.14-.336-.517 0-.9.114-1.142.34-.25.231-.377.608-.377 1.122 0 .017-.01.033-.01.054l-.212 2.01c.004.443.111.77.326.968.209.191.552.292 1.012.292.457 0 .797-.097 1.009-.292.05-.05.09-.111.13-.172-.003-.003.68-2.174.77-2.924zm-4.5-.783c.124-.551.37-1.015.756-1.372.239-.222.52-.383.833-.507.03-.306.061-.615.061-.948 0-1.614-.37-2.911-1.062-3.896-.111.124-.199.269-.323.383-1.19 1.103-2.877 1.66-5.015 1.66-2.134 0-3.825-.557-5.012-1.66-.124-.114-.215-.255-.326-.383-.689.985-1.062 2.28-1.062 3.896 0 .333.03.642.06.948.313.124.595.289.834.507.383.357.632.82.756 1.372.014.04.037.077.04.12l.004.034c.007.044.01.095.014.138l.174 1.66c1.036.875 2.484 1.312 4.457 1.312.02 0 .04-.004.061-.004.024 0 .037.004.06.004 1.97 0 3.422-.44 4.454-1.311l.175-1.66c.007-.044.01-.095.017-.139l.003-.033c.004-.044.027-.078.04-.121zM5.51 21.812c.215-.199.32-.525.326-.968l-.212-2.01c0-.017-.013-.037-.013-.054 0-.514-.128-.894-.373-1.123-.246-.225-.629-.34-1.147-.34-.517 0-.9.115-1.14.337-.238.222-.42.585-.365 1.062.09.75.773 2.921.773 2.921a.663.663 0 00.13.171c.213.192.549.293 1.01.293.463.003.803-.098 1.01-.29zm-2.178-9.358c-1.311 1.482-.464 2.585.158 3.109l.195.161c.033.027.09.064.134.094a.708.708 0 01.084-.006c-.013-.239-.047-.46-.047-.71 0-1.368.249-2.547.69-3.573-.441.256-.918.595-1.214.925zM5.42 3.812a5.438 5.438 0 011.378-2.108c-.474-.188-.937-.043-1.374.45-.528.599-.521 1.157-.004 1.658zm6.417-2.293c-1.714 0-3.032.417-3.92 1.247C7 3.62 6.534 4.924 6.534 6.64c0 1.714.467 3.011 1.385 3.862.743.689 1.805 1.075 3.14 1.186V7.93a1.65 1.65 0 01-.495-.305 1.315 1.315 0 01-.376-.582s-.054-.181-.054-.32c0-.117.067-.285.067-.285.087-.178.178-.306.32-.44.325-.3.77-.454 1.314-.464.548.01.991.164 1.314.464.144.13.235.262.323.44 0 0 .067.168.067.286 0 .134-.05.319-.05.319-.088.252-.192.41-.377.582a1.65 1.65 0 01-.494.305v3.758c1.33-.11 2.396-.497 3.14-1.186.917-.85 1.38-2.148 1.38-3.862 0-1.715-.463-3.019-1.38-3.873-.888-.827-2.206-1.247-3.92-1.247zm6.413.632c-.437-.494-.9-.635-1.374-.45a5.445 5.445 0 011.381 2.107c.514-.497.525-1.055-.007-1.657zm2.091 10.303c-.292-.33-.77-.666-1.213-.921.44 1.025.685 2.205.685 3.573 0 .245-.03.47-.047.71.027 0 .058.002.084.006.047-.03.105-.07.135-.094l.198-.162c.622-.53 1.47-1.63.158-3.112zm1.476 4.107c.544.505.82 1.153.844 2.037 0 .037-.007.178-.02.263-.01.094-.051.322-.051.322l-.78 2.948c-.007.034-.03.06-.044.094-.006.024-.006.047-.02.067-.01.014-.023.024-.027.037a.624.624 0 01-.074.091 2.346 2.346 0 01-.37.48c-.514.475-1.22.717-2.104.717-.88 0-1.593-.242-2.104-.716-.336-.31-.558-.706-.685-1.17-1.194.656-2.676.982-4.488.982-.023 0-.037-.004-.06-.004-.02 0-.037.004-.06.004-1.816 0-3.295-.326-4.492-.982-.127.464-.346.86-.682 1.17-.518.474-1.224.716-2.104.716-.88 0-1.59-.242-2.104-.716a2.273 2.273 0 01-.374-.48c-.023-.031-.05-.058-.07-.092-.007-.013-.024-.023-.03-.037-.01-.023-.01-.047-.02-.067-.014-.033-.034-.06-.044-.094l-.777-2.948s-.043-.225-.053-.322a2.257 2.257 0 01-.02-.263c.026-.884.299-1.532.843-2.037.077-.07.165-.127.249-.185-1.1-1.152-1.664-3.001.027-4.907.726-.82 2.295-1.748 3.166-1.876.064-.01.09-.033.161-.047l-.01-.027c-.322-.837-.497-1.795-.497-2.88 0-.424.044-.81.094-1.197-.024-.013-.054-.007-.077-.02a3.081 3.081 0 01-.336-.232l-.169-.135c-.971-.82-1.616-2.329-.238-3.882C5.585-.37 7.212-.01 8.203.77 9.212.279 10.412.007 11.83.007c1.419 0 2.619.272 3.627.763.992-.78 2.619-1.14 3.983.403 1.375 1.553.733 3.062-.238 3.882l-.165.135c-.064.05-.161.12-.34.232-.023.013-.05.01-.077.02.047.387.094.773.094 1.197 0 1.089-.171 2.043-.494 2.88l-.01.027c.067.014.094.037.158.047.874.128 2.444 1.056 3.17 1.876 1.687 1.906 1.123 3.755.023 4.907.088.061.178.115.256.185zM15.276 6.286c-.25 0-.444-.064-.579-.189-.14-.127-.211-.319-.211-.57 0-.25.07-.441.211-.569.135-.128.333-.192.579-.192.248 0 .443.064.578.192.141.128.208.32.208.571 0 .25-.067.44-.208.568-.135.128-.33.189-.578.189z" fill="#5CB615" fill-rule="nonzero"/></svg>
